packages/tokens/icons/generateReport/size24Px.svg

<svg viewBox="0 0 24 24" fill="none" xmlns="http://www.w3.org/2000/svg" width="1em" height="1em"><path d="M18 21.5H6C5.17157 21.5 4.5 20.8284 4.5 20L4.5 4C4.5 3.17157 5.17157 2.5 6 2.5L13.4718 2.5C13.9133 2.5 14.3323 2.69449 14.6174 3.03167L19.1456 8.38871C19.3744 8.65946 19.5 9.00252 19.5 9.35704V20C19.5 20.8284 18.8284 21.5 18 21.5Z" stroke="currentColor"/><path d="M13.4779 3V6.50924C13.4779 7.61381 14.3733 8.50924 15.4779 8.50924H19.3083" stroke="currentColor"/><path d="M9 12.6666H15M12 10L12 16" stroke="currentColor" stroke-linecap="round"/></svg>

<svg xmlns="http://www.w3.org/2000/svg" fill="none" viewBox="0 0 24 24" width="1em" height="1em"><path stroke="currentColor" d="M18 21.5H6A1.5 1.5 0 0 1 4.5 20V4A1.5 1.5 0 0 1 6 2.5h7.472a1.5 1.5 0 0 1 1.145.532l4.529 5.357a1.5 1.5 0 0 1 .354.968V20a1.5 1.5 0 0 1-1.5 1.5Z"/><path stroke="currentColor" d="M13.478 3v3.51a2 2 0 0 0 2 2h3.83"/><path stroke="currentColor" stroke-linecap="round" d="M9 12.667h6M12 10v6"/></svg>
